X:140
T:Newport Assembly THO4.140
M:2/4
L:1/8
Z:vmp. Peter Dunk 2010/11.from a transcription by Fynn Titford-Mock 2007
B:Thompson's Compleat Collection of 200 Favourite Country Dances Volume IV.
Q:1/4=140
K:G
g2 (3gab|gfed|e2 (3efg|edcB|c2 ac|B2gB|AGFA|G4:|
|:BABc|dBAG|defg|afed|gbag|fagf|(3egf (3ed^c|d2D2:|
|:gbag|afed|egfa|gdBG|ceac|BdgB|AGFA|G2G,2:|
